Newaita-dark/apps/22/com.github.ronnydo.wammer.svg

<svg height="22" viewBox="0 0 22 22" width="22" xmlns="http://www.w3.org/2000/svg" xmlns:xlink="http://www.w3.org/1999/xlink"><linearGradient id="a"><stop offset="0" stop-opacity=".313726"/><stop offset=".222222" stop-opacity=".27451"/><stop offset="1" stop-opacity="0"/></linearGradient><radialGradient id="b" cx="450.908936" cy="189.579361" gradientTransform="matrix(.00000012 -.0537161 -.0966889 -.00000007 29.017881 43.661151)" gradientUnits="userSpaceOnUse" r="21.166656" xlink:href="#a"/><radialGradient id="c" cx="450.908936" cy="189.579361" gradientTransform="matrix(-.00000012 .0537161 .0966889 .00000007 -7.187669 -5.235782)" gradientUnits="userSpaceOnUse" r="21.166656" xlink:href="#a"/><radialGradient id="d" cx="450.908936" cy="189.579361" gradientTransform="matrix(-.00000012 -.0537161 .0966889 -.00000007 -7.187669 43.661151)" gradientUnits="userSpaceOnUse" r="21.166656" xlink:href="#a"/><radialGradient id="e" cx="450.908936" cy="189.579361" gradientTransform="matrix(.00000012 .0537161 -.0966889 .00000007 29.01788 -5.235782)" gradientUnits="userSpaceOnUse" r="21.166656" xlink:href="#a"/><linearGradient id="f" gradientUnits="userSpaceOnUse" x1="10.9151166" x2="10.9151166" y1="19.27333515" y2="2.90066025"><stop offset="0" stop-color="#009688"/><stop offset="1" stop-color="#26a69a"/></linearGradient><linearGradient id="g" gradientUnits="userSpaceOnUse" x1="10.9151166" x2="10.9151166" y1="19.27333515" y2="2.90066025"><stop offset="0" stop-color="#78909c"/><stop offset="1" stop-color="#90a4ae"/></linearGradient><linearGradient id="h" gradientUnits="userSpaceOnUse" x1="10.9151166" x2="10.9151166" y1="19.27333515" y2="1.99106697081"><stop offset="0" stop-color="#ffa726"/><stop offset="1" stop-color="#ffb74d"/></linearGradient><linearGradient id="i" gradientUnits="userSpaceOnUse" x1="10.9151166" x2="10.9151166" y1="19.27333515" y2="2.90066025"><stop offset="0" stop-color="#f44336"/><stop offset="1" stop-color="#ef5350"/></linearGradient><path d="m10.914062 19.210938h1.820313v-.90625h-1.820313zm0 0" fill="url(#b)"/><path d="m10.914062 19.210938h-1.816406v.910156h1.816406zm0 0" fill="url(#c)"/><path d="m10.914062 19.210938h-1.816406v-.90625h1.816406zm0 0" fill="url(#d)"/><path d="m10.914062 19.210938h1.820313v.910156h-1.820313zm0 0" fill="url(#e)"/><path d="m10.914062 13.929688c-1.332031 0-2.53125.570312-3.359374 1.476562l2.421874 3.527344c.484376.453125 1.394532.453125 1.875 0l2.425782-3.527344c-.832032-.90625-2.027344-1.476562-3.363282-1.476562zm0 0" fill="url(#f)"/><path d="m10.914062 3.015625c-3.632812 0-6.964843 1.238281-9.597656 3.320313l1.550782 2.257812c2.191406-1.785156 4.992187-2.851562 8.046874-2.851562 3.058594 0 5.855469 1.066406 8.046876 2.851562l1.550781-2.257812c-2.632813-2.082032-5.964844-3.320313-9.597657-3.320313zm0 0" fill="url(#g)"/><path d="m10.914062 8.472656c-2.480468 0-4.746093.894532-6.492187 2.378906l1.558594 2.269532c1.296875-1.195313 3.027343-1.921875 4.933593-1.921875 1.910157 0 3.640626.726562 4.933594 1.921875l1.558594-2.269532c-1.742188-1.484374-4.007812-2.378906-6.492188-2.378906zm0 0" fill="url(#f)"/><path d="m10.914062 8.472656c-2.480468 0-4.746093.894532-6.492187 2.378906l1.558594 2.269532c1.296875-1.195313 3.027343-1.921875 4.933593-1.921875 1.910157 0 3.640626.726562 4.933594 1.921875l1.558594-2.269532c-1.742188-1.484374-4.007812-2.378906-6.492188-2.378906zm0 0" fill="url(#g)"/><path d="m10.914062 13.929688c-1.332031 0-2.53125.570312-3.359374 1.476562l2.421874 3.527344c.484376.453125 1.394532.453125 1.875 0l2.425782-3.527344c-.832032-.90625-2.027344-1.476562-3.363282-1.476562zm0 0" fill="url(#g)"/><path d="m10.914062 5.574219c-3.054687 0-5.855468 1.066406-8.046874 2.847656l-1.472657-2.144531c-.027343.019531-.050781.039062-.078125.058594l1.550782 2.257812c2.191406-1.785156 4.992187-2.851562 8.046874-2.851562 3.058594 0 5.855469 1.066406 8.046876 2.851562l1.550781-2.257812c-.023438-.019532-.050781-.039063-.074219-.058594l-1.476562 2.144531c-2.191407-1.78125-4.988282-2.847656-8.046876-2.847656zm-6.417968 5.214843c-.023438.023438-.050782.042969-.074219.0625l1.558594 2.269532c1.296875-1.195313 3.027343-1.921875 4.933593-1.921875 1.910157 0 3.640626.726562 4.933594 1.921875l1.558594-2.269532c-.023438-.019531-.046875-.039062-.074219-.0625l-1.484375 2.160157c-1.292968-1.191407-3.023437-1.917969-4.933594-1.917969-1.90625 0-3.636718.726562-4.933593 1.917969zm3.125 4.546876c-.023438.023437-.042969.046874-.066406.070312l2.421874 3.527344c.484376.453125 1.394532.453125 1.875 0l2.425782-3.527344c-.023438-.023438-.046875-.046875-.070313-.070312l-2.355469 3.425781c-.480468.453125-1.390624.453125-1.875 0zm0 0" fill-opacity=".235294"/><path d="m10.914062 3.015625c-3.632812 0-6.964843 1.238281-9.597656 3.320313l.101563.148437c2.617187-2.035156 5.910156-3.242187 9.496093-3.242187 3.585938 0 6.878907 1.207031 9.496094 3.242187l.101563-.148437c-2.632813-2.082032-5.964844-3.320313-9.597657-3.320313zm0 5.457031c-2.480468 0-4.746093.894532-6.492187 2.378906l.101563.144532c1.730468-1.433594 3.957031-2.296875 6.390624-2.296875 2.4375 0 4.664063.863281 6.394532 2.296875l.097656-.144532c-1.742188-1.484374-4.007812-2.378906-6.492188-2.378906zm0 5.457032c-1.332031 0-2.53125.570312-3.359374 1.476562l.089843.132812c.824219-.851562 1.984375-1.382812 3.269531-1.382812 1.289063 0 2.445313.53125 3.273438 1.382812l.089844-.132812c-.832032-.90625-2.027344-1.476562-3.363282-1.476562zm0 0" fill="#fff" fill-opacity=".392157"/><path d="m10.914062 2.949219c-3.644531 0-6.992187 1.246093-9.636718 3.335937l-.046875.039063 1.625 2.363281.054687-.042969c2.179688-1.777343 4.960938-2.835937 8.003906-2.835937 3.042969 0 5.828126 1.058594 8.007813 2.835937l.054687.042969 1.625-2.363281-.046874-.039063c-2.644532-2.089844-5.992188-3.335937-9.640626-3.335937zm0 .128906c3.597657 0 6.894532 1.222656 9.511719 3.273437l-1.480469 2.148438c-2.191406-1.765625-4.984374-2.820312-8.03125-2.820312-3.046874 0-5.835937 1.054687-8.03125 2.820312l-1.476562-2.148438c2.613281-2.050781 5.914062-3.273437 9.507812-3.273437zm0 5.328125c-2.496093 0-4.777343.902344-6.535156 2.398438l-.042968.035156 1.632812 2.378906.054688-.050781c1.285156-1.183594 3-1.902344 4.890624-1.902344 1.890626 0 3.609376.71875 4.890626 1.902344l.054687.050781 1.632813-2.378906-.042969-.035156c-1.757813-1.496094-4.035157-2.398438-6.535157-2.398438zm0 .128906c2.445313 0 4.679688.875 6.40625 2.328125l-1.484374 2.160157c-1.300782-1.171876-3.023438-1.886719-4.921876-1.886719-1.894531 0-3.621093.714843-4.921874 1.886719l-1.484376-2.160157c1.730469-1.453125 3.960938-2.328125 6.40625-2.328125zm0 5.328125c-1.351562 0-2.566406.578125-3.40625 1.5l-.035156.039063 2.457032 3.570312.003906.007813c.253906.238281.621094.355469.980468.355469.363282 0 .726563-.117188.984376-.355469l.003906-.007813 2.457031-3.570312-.035156-.039063c-.84375-.921875-2.054688-1.5-3.410157-1.5zm0 .128907c1.296876 0 2.460938.546874 3.28125 1.421874l-2.390624 3.476563c-.226563.210937-.558594.316406-.890626.316406-.332031 0-.660156-.105469-.886718-.316406l-2.390625-3.476563c.816406-.875 1.980469-1.421874 3.277343-1.421874zm0 0" fill="#212121"/><path d="m10.914062 15.023438-.6875-3.335938-2.847656 1.871094 1.871094-2.847656-3.335938-.6875 3.335938-.691407-1.871094-2.847656 2.847656 1.875.6875-3.339844.691407 3.339844 2.847656-1.875-1.875 2.847656 3.339844.691407-3.339844.6875 1.875 2.847656-2.847656-1.871094zm0 0" fill="url(#h)"/><path d="m7.378906 6.859375 1.65625 2.519531.214844-.046875-1.4375-2.183593zm7.074219 0-.4375.289063-1.4375 2.183593.21875.046875zm-7.628906 3.351563-.910157.1875 3.121094.644531.214844-.332031zm8.183593 0-2.429687.5.21875.332031 3.121094-.644531zm-4.78125 1.476562-2.414062 1.585938-.433594.660156 2.847656-1.871094.6875 3.339844.691407-3.339844 2.847656 1.871094-.4375-.660156-2.410156-1.585938-.691407 3.335938zm0 0" fill-opacity=".235294"/><path d="m253.975747 134.602978-15.998473-77.62895-66.266399 43.541296 43.541297-66.266399-77.628951-15.998472 77.628951-16.089373-43.541297-66.266399 66.266399 43.632197 15.998473-77.719851 16.089372 77.719851 66.266399-43.632197-43.632197 66.266399 77.719851 16.089373-77.719851 15.998472 43.632197 66.266399-66.266399-43.541296zm0 0" fill="none" stroke="#212121" stroke-linecap="round" stroke-linejoin="round" stroke-width="3" transform="matrix(.0429729 0 0 .0429729 0 9.239163)"/><path d="m10.890625 12.136719-.324219-1.5625-1.332031.878906.878906-1.335937-1.566406-.324219 1.566406-.324219-.878906-1.332031 1.332031.875.324219-1.5625.324219 1.5625 1.335937-.875-.878906 1.332031 1.5625.324219-1.5625.324219.878906 1.335937-1.335937-.878906zm0 0" fill="url(#i)"/></svg>

<?xml version="1.0" encoding="UTF-8"?>
<svg xmlns="http://www.w3.org/2000/svg" xmlns:xlink="http://www.w3.org/1999/xlink" width="22px" height="22px" viewBox="0 0 22 22" version="1.1">
<defs>
<radialGradient id="radial0" gradientUnits="userSpaceOnUse" cx="450.908936" cy="189.579361" fx="450.908936" fy="189.579361" r="21.166656" gradientTransform="matrix(0.000000119742,-0.0537161,-0.0966889,-0.0000000698078,29.017881,43.661151)">
<stop offset="0" style="stop-color:rgb(0%,0%,0%);stop-opacity:0.313726;"/>
<stop offset="0.222222" style="stop-color:rgb(0%,0%,0%);stop-opacity:0.27451;"/>
<stop offset="1" style="stop-color:rgb(0%,0%,0%);stop-opacity:0;"/>
</radialGradient>
<radialGradient id="radial1" gradientUnits="userSpaceOnUse" cx="450.908936" cy="189.579361" fx="450.908936" fy="189.579361" r="21.166656" gradientTransform="matrix(-0.000000119742,0.0537161,0.0966889,0.0000000698078,-7.187669,-5.235782)">
<stop offset="0" style="stop-color:rgb(0%,0%,0%);stop-opacity:0.313726;"/>
<stop offset="0.222222" style="stop-color:rgb(0%,0%,0%);stop-opacity:0.27451;"/>
<stop offset="1" style="stop-color:rgb(0%,0%,0%);stop-opacity:0;"/>
</radialGradient>
<radialGradient id="radial2" gradientUnits="userSpaceOnUse" cx="450.908936" cy="189.579361" fx="450.908936" fy="189.579361" r="21.166656" gradientTransform="matrix(-0.000000119742,-0.0537161,0.0966889,-0.0000000698078,-7.187669,43.661151)">
<stop offset="0" style="stop-color:rgb(0%,0%,0%);stop-opacity:0.313726;"/>
<stop offset="0.222222" style="stop-color:rgb(0%,0%,0%);stop-opacity:0.27451;"/>
<stop offset="1" style="stop-color:rgb(0%,0%,0%);stop-opacity:0;"/>
</radialGradient>
<radialGradient id="radial3" gradientUnits="userSpaceOnUse" cx="450.908936" cy="189.579361" fx="450.908936" fy="189.579361" r="21.166656" gradientTransform="matrix(0.000000119742,0.0537161,-0.0966889,0.0000000698078,29.01788,-5.235782)">
<stop offset="0" style="stop-color:rgb(0%,0%,0%);stop-opacity:0.313726;"/>
<stop offset="0.222222" style="stop-color:rgb(0%,0%,0%);stop-opacity:0.27451;"/>
<stop offset="1" style="stop-color:rgb(0%,0%,0%);stop-opacity:0;"/>
</radialGradient>
<linearGradient id="linear0" gradientUnits="userSpaceOnUse" x1="254" y1="233.5" x2="254" y2="-147.5" gradientTransform="matrix(0.0429729,0,0,0.0429729,0,9.239163)">
<stop offset="0" style="stop-color:rgb(0%,58.823532%,53.333336%);stop-opacity:1;"/>
<stop offset="1" style="stop-color:rgb(14.901961%,65.098041%,60.392159%);stop-opacity:1;"/>
</linearGradient>
<linearGradient id="linear1" gradientUnits="userSpaceOnUse" x1="254" y1="233.5" x2="254" y2="-147.5" gradientTransform="matrix(0.0429729,0,0,0.0429729,0,9.239163)">
<stop offset="0" style="stop-color:rgb(47.058824%,56.470591%,61.176473%);stop-opacity:1;"/>
<stop offset="1" style="stop-color:rgb(56.470591%,64.313728%,68.235296%);stop-opacity:1;"/>
</linearGradient>
<linearGradient id="linear2" gradientUnits="userSpaceOnUse" x1="254" y1="233.5" x2="254" y2="-147.5" gradientTransform="matrix(0.0429729,0,0,0.0429729,0,9.239163)">
<stop offset="0" style="stop-color:rgb(0%,58.823532%,53.333336%);stop-opacity:1;"/>
<stop offset="1" style="stop-color:rgb(14.901961%,65.098041%,60.392159%);stop-opacity:1;"/>
</linearGradient>
<linearGradient id="linear3" gradientUnits="userSpaceOnUse" x1="254" y1="233.5" x2="254" y2="-147.5" gradientTransform="matrix(0.0429729,0,0,0.0429729,0,9.239163)">
<stop offset="0" style="stop-color:rgb(47.058824%,56.470591%,61.176473%);stop-opacity:1;"/>
<stop offset="1" style="stop-color:rgb(56.470591%,64.313728%,68.235296%);stop-opacity:1;"/>
</linearGradient>
<linearGradient id="linear4" gradientUnits="userSpaceOnUse" x1="254" y1="233.5" x2="254" y2="-147.5" gradientTransform="matrix(0.0429729,0,0,0.0429729,0,9.239163)">
<stop offset="0" style="stop-color:rgb(47.058824%,56.470591%,61.176473%);stop-opacity:1;"/>
<stop offset="1" style="stop-color:rgb(56.470591%,64.313728%,68.235296%);stop-opacity:1;"/>
</linearGradient>
<linearGradient id="linear5" gradientUnits="userSpaceOnUse" x1="254" y1="233.5" x2="254" y2="-168.666672" gradientTransform="matrix(0.0429729,0,0,0.0429729,0,9.239163)">
<stop offset="0" style="stop-color:rgb(100%,65.490198%,14.901961%);stop-opacity:1;"/>
<stop offset="1" style="stop-color:rgb(100%,71.764708%,30.19608%);stop-opacity:1;"/>
</linearGradient>
<linearGradient id="linear6" gradientUnits="userSpaceOnUse" x1="254" y1="233.5" x2="254" y2="-147.5" gradientTransform="matrix(0.0429729,0,0,0.0429729,0,9.239163)">
<stop offset="0" style="stop-color:rgb(95.686275%,26.274511%,21.176471%);stop-opacity:1;"/>
<stop offset="1" style="stop-color:rgb(93.725491%,32.549021%,31.37255%);stop-opacity:1;"/>
</linearGradient>
</defs>
<g id="surface1">
<path style=" stroke:none;fill-rule:nonzero;fill:url(#radial0);" d="M 10.914062 19.210938 L 12.734375 19.210938 L 12.734375 18.304688 L 10.914062 18.304688 Z M 10.914062 19.210938 "/>
<path style=" stroke:none;fill-rule:nonzero;fill:url(#radial1);" d="M 10.914062 19.210938 L 9.097656 19.210938 L 9.097656 20.121094 L 10.914062 20.121094 Z M 10.914062 19.210938 "/>
<path style=" stroke:none;fill-rule:nonzero;fill:url(#radial2);" d="M 10.914062 19.210938 L 9.097656 19.210938 L 9.097656 18.304688 L 10.914062 18.304688 Z M 10.914062 19.210938 "/>
<path style=" stroke:none;fill-rule:nonzero;fill:url(#radial3);" d="M 10.914062 19.210938 L 12.734375 19.210938 L 12.734375 20.121094 L 10.914062 20.121094 Z M 10.914062 19.210938 "/>
<path style=" stroke:none;fill-rule:nonzero;fill:url(#linear0);" d="M 10.914062 13.929688 C 9.582031 13.929688 8.382812 14.5 7.554688 15.40625 L 9.976562 18.933594 C 10.460938 19.386719 11.371094 19.386719 11.851562 18.933594 L 14.277344 15.40625 C 13.445312 14.5 12.25 13.929688 10.914062 13.929688 Z M 10.914062 13.929688 "/>
<path style=" stroke:none;fill-rule:nonzero;fill:url(#linear1);" d="M 10.914062 3.015625 C 7.28125 3.015625 3.949219 4.253906 1.316406 6.335938 L 2.867188 8.59375 C 5.058594 6.808594 7.859375 5.742188 10.914062 5.742188 C 13.972656 5.742188 16.769531 6.808594 18.960938 8.59375 L 20.511719 6.335938 C 17.878906 4.253906 14.546875 3.015625 10.914062 3.015625 Z M 10.914062 3.015625 "/>
<path style=" stroke:none;fill-rule:nonzero;fill:url(#linear2);" d="M 10.914062 8.472656 C 8.433594 8.472656 6.167969 9.367188 4.421875 10.851562 L 5.980469 13.121094 C 7.277344 11.925781 9.007812 11.199219 10.914062 11.199219 C 12.824219 11.199219 14.554688 11.925781 15.847656 13.121094 L 17.40625 10.851562 C 15.664062 9.367188 13.398438 8.472656 10.914062 8.472656 Z M 10.914062 8.472656 "/>
<path style=" stroke:none;fill-rule:nonzero;fill:url(#linear3);" d="M 10.914062 8.472656 C 8.433594 8.472656 6.167969 9.367188 4.421875 10.851562 L 5.980469 13.121094 C 7.277344 11.925781 9.007812 11.199219 10.914062 11.199219 C 12.824219 11.199219 14.554688 11.925781 15.847656 13.121094 L 17.40625 10.851562 C 15.664062 9.367188 13.398438 8.472656 10.914062 8.472656 Z M 10.914062 8.472656 "/>
<path style=" stroke:none;fill-rule:nonzero;fill:url(#linear4);" d="M 10.914062 13.929688 C 9.582031 13.929688 8.382812 14.5 7.554688 15.40625 L 9.976562 18.933594 C 10.460938 19.386719 11.371094 19.386719 11.851562 18.933594 L 14.277344 15.40625 C 13.445312 14.5 12.25 13.929688 10.914062 13.929688 Z M 10.914062 13.929688 "/>
<path style=" stroke:none;fill-rule:nonzero;fill:rgb(0%,0%,0%);fill-opacity:0.235294;" d="M 10.914062 5.574219 C 7.859375 5.574219 5.058594 6.640625 2.867188 8.421875 L 1.394531 6.277344 C 1.367188 6.296875 1.34375 6.316406 1.316406 6.335938 L 2.867188 8.59375 C 5.058594 6.808594 7.859375 5.742188 10.914062 5.742188 C 13.972656 5.742188 16.769531 6.808594 18.960938 8.59375 L 20.511719 6.335938 C 20.488281 6.316406 20.460938 6.296875 20.4375 6.277344 L 18.960938 8.421875 C 16.769531 6.640625 13.972656 5.574219 10.914062 5.574219 Z M 4.496094 10.789062 C 4.472656 10.8125 4.445312 10.832031 4.421875 10.851562 L 5.980469 13.121094 C 7.277344 11.925781 9.007812 11.199219 10.914062 11.199219 C 12.824219 11.199219 14.554688 11.925781 15.847656 13.121094 L 17.40625 10.851562 C 17.382812 10.832031 17.359375 10.8125 17.332031 10.789062 L 15.847656 12.949219 C 14.554688 11.757812 12.824219 11.03125 10.914062 11.03125 C 9.007812 11.03125 7.277344 11.757812 5.980469 12.949219 Z M 7.621094 15.335938 C 7.597656 15.359375 7.578125 15.382812 7.554688 15.40625 L 9.976562 18.933594 C 10.460938 19.386719 11.371094 19.386719 11.851562 18.933594 L 14.277344 15.40625 C 14.253906 15.382812 14.230469 15.359375 14.207031 15.335938 L 11.851562 18.761719 C 11.371094 19.214844 10.460938 19.214844 9.976562 18.761719 Z M 7.621094 15.335938 "/>
<path style=" stroke:none;fill-rule:nonzero;fill:rgb(100%,100%,100%);fill-opacity:0.392157;" d="M 10.914062 3.015625 C 7.28125 3.015625 3.949219 4.253906 1.316406 6.335938 L 1.417969 6.484375 C 4.035156 4.449219 7.328125 3.242188 10.914062 3.242188 C 14.5 3.242188 17.792969 4.449219 20.410156 6.484375 L 20.511719 6.335938 C 17.878906 4.253906 14.546875 3.015625 10.914062 3.015625 Z M 10.914062 8.472656 C 8.433594 8.472656 6.167969 9.367188 4.421875 10.851562 L 4.523438 10.996094 C 6.253906 9.5625 8.480469 8.699219 10.914062 8.699219 C 13.351562 8.699219 15.578125 9.5625 17.308594 10.996094 L 17.40625 10.851562 C 15.664062 9.367188 13.398438 8.472656 10.914062 8.472656 Z M 10.914062 13.929688 C 9.582031 13.929688 8.382812 14.5 7.554688 15.40625 L 7.644531 15.539062 C 8.46875 14.6875 9.628906 14.15625 10.914062 14.15625 C 12.203125 14.15625 13.359375 14.6875 14.1875 15.539062 L 14.277344 15.40625 C 13.445312 14.5 12.25 13.929688 10.914062 13.929688 Z M 10.914062 13.929688 "/>
<path style=" stroke:none;fill-rule:nonzero;fill:rgb(12.941177%,12.941177%,12.941177%);fill-opacity:1;" d="M 10.914062 2.949219 C 7.269531 2.949219 3.921875 4.195312 1.277344 6.285156 L 1.230469 6.324219 L 2.855469 8.6875 L 2.910156 8.644531 C 5.089844 6.867188 7.871094 5.808594 10.914062 5.808594 C 13.957031 5.808594 16.742188 6.867188 18.921875 8.644531 L 18.976562 8.6875 L 20.601562 6.324219 L 20.554688 6.285156 C 17.910156 4.195312 14.5625 2.949219 10.914062 2.949219 Z M 10.914062 3.078125 C 14.511719 3.078125 17.808594 4.300781 20.425781 6.351562 L 18.945312 8.5 C 16.753906 6.734375 13.960938 5.679688 10.914062 5.679688 C 7.867188 5.679688 5.078125 6.734375 2.882812 8.5 L 1.40625 6.351562 C 4.019531 4.300781 7.320312 3.078125 10.914062 3.078125 Z M 10.914062 8.40625 C 8.417969 8.40625 6.136719 9.308594 4.378906 10.804688 L 4.335938 10.839844 L 5.96875 13.21875 L 6.023438 13.167969 C 7.308594 11.984375 9.023438 11.265625 10.914062 11.265625 C 12.804688 11.265625 14.523438 11.984375 15.804688 13.167969 L 15.859375 13.21875 L 17.492188 10.839844 L 17.449219 10.804688 C 15.691406 9.308594 13.414062 8.40625 10.914062 8.40625 Z M 10.914062 8.535156 C 13.359375 8.535156 15.59375 9.410156 17.320312 10.863281 L 15.835938 13.023438 C 14.535156 11.851562 12.8125 11.136719 10.914062 11.136719 C 9.019531 11.136719 7.292969 11.851562 5.992188 13.023438 L 4.507812 10.863281 C 6.238281 9.410156 8.46875 8.535156 10.914062 8.535156 Z M 10.914062 13.863281 C 9.5625 13.863281 8.347656 14.441406 7.507812 15.363281 L 7.472656 15.402344 L 9.929688 18.972656 L 9.933594 18.980469 C 10.1875 19.21875 10.554688 19.335938 10.914062 19.335938 C 11.277344 19.335938 11.640625 19.21875 11.898438 18.980469 L 11.902344 18.972656 L 14.359375 15.402344 L 14.324219 15.363281 C 13.480469 14.441406 12.269531 13.863281 10.914062 13.863281 Z M 10.914062 13.992188 C 12.210938 13.992188 13.375 14.539062 14.195312 15.414062 L 11.804688 18.890625 C 11.578125 19.101562 11.246094 19.207031 10.914062 19.207031 C 10.582031 19.207031 10.253906 19.101562 10.027344 18.890625 L 7.636719 15.414062 C 8.453125 14.539062 9.617188 13.992188 10.914062 13.992188 Z M 10.914062 13.992188 "/>
<path style=" stroke:none;fill-rule:nonzero;fill:url(#linear5);" d="M 10.914062 15.023438 L 10.226562 11.6875 L 7.378906 13.558594 L 9.25 10.710938 L 5.914062 10.023438 L 9.25 9.332031 L 7.378906 6.484375 L 10.226562 8.359375 L 10.914062 5.019531 L 11.605469 8.359375 L 14.453125 6.484375 L 12.578125 9.332031 L 15.917969 10.023438 L 12.578125 10.710938 L 14.453125 13.558594 L 11.605469 11.6875 Z M 10.914062 15.023438 "/>
<path style=" stroke:none;fill-rule:nonzero;fill:rgb(0%,0%,0%);fill-opacity:0.235294;" d="M 7.378906 6.859375 L 9.035156 9.378906 L 9.25 9.332031 L 7.8125 7.148438 Z M 14.453125 6.859375 L 14.015625 7.148438 L 12.578125 9.332031 L 12.796875 9.378906 Z M 6.824219 10.210938 L 5.914062 10.398438 L 9.035156 11.042969 L 9.25 10.710938 Z M 15.007812 10.210938 L 12.578125 10.710938 L 12.796875 11.042969 L 15.917969 10.398438 Z M 10.226562 11.6875 L 7.8125 13.273438 L 7.378906 13.933594 L 10.226562 12.0625 L 10.914062 15.402344 L 11.605469 12.0625 L 14.453125 13.933594 L 14.015625 13.273438 L 11.605469 11.6875 L 10.914062 15.023438 Z M 10.226562 11.6875 "/>
<path style="fill:none;stroke-width:3;stroke-linecap:round;stroke-linejoin:round;stroke:rgb(12.941177%,12.941177%,12.941177%);stroke-opacity:1;stroke-miterlimit:4;" d="M 253.975747 134.602978 L 237.977274 56.974028 L 171.710875 100.515324 L 215.252172 34.248925 L 137.623221 18.250453 L 215.252172 2.16108 L 171.710875 -64.105319 L 237.977274 -20.473122 L 253.975747 -98.192973 L 270.065119 -20.473122 L 336.331518 -64.105319 L 292.699321 2.16108 L 370.419172 18.250453 L 292.699321 34.248925 L 336.331518 100.515324 L 270.065119 56.974028 Z M 253.975747 134.602978 " transform="matrix(0.0429729,0,0,0.0429729,0,9.239163)"/>
<path style=" stroke:none;fill-rule:nonzero;fill:url(#linear6);" d="M 10.890625 12.136719 L 10.566406 10.574219 L 9.234375 11.453125 L 10.113281 10.117188 L 8.546875 9.792969 L 10.113281 9.46875 L 9.234375 8.136719 L 10.566406 9.011719 L 10.890625 7.449219 L 11.214844 9.011719 L 12.550781 8.136719 L 11.671875 9.46875 L 13.234375 9.792969 L 11.671875 10.117188 L 12.550781 11.453125 L 11.214844 10.574219 Z M 10.890625 12.136719 "/>
</g>
</svg>
